X: 10872
U: Q=!diminuendo(!
U: q=!diminuendo)!
M: 6/8
L: 1/8
K: Bb
d>cB (F<D)B | (G<E)B (F<D)B | d>cB (F<D)F | (G<B)A B2c |\
d>cB (F<D)B | (G<E)B (F<D)B | d>cB (G<Qe)dq | c>BA B2 H|]
(f |\
.d)z (.f .e)z f | B>cB (A<F)(f | d<B)f (c<b)a | gf=e f2^f |\
g3 f3 | e3 d2c | d>cB (G<e)d | c>BA "^D.C."B2 |]


